images/ico-bicro-emploi-ouvrier.svg

<svg xmlns="http://www.w3.org/2000/svg" width="25" height="25" fill="none" viewBox="0 0 25 25"><g id="marche/ouvrier"><g id="Group 15"><circle id="Ellipse 11" cx="15.25" cy="8.25" r="6.25" fill="#cce1f8"/><path id="Shape" fill="#000638" fill-rule="evenodd" d="M11.9152 4.29069C11.8938 4.08058 11.7164 3.91663 11.5007 3.91663C11.2705 3.91663 11.084 4.10317 11.084 4.33329V12L11.0861 12.0426C11.1075 12.2527 11.2849 12.4166 11.5007 12.4166C11.7308 12.4166 11.9173 12.2301 11.9173 12V4.33329L11.9152 4.29069ZM13.5818 4.29069C13.5605 4.08058 13.3831 3.91663 13.1673 3.91663C12.9372 3.91663 12.7507 4.10317 12.7507 4.33329V12L12.7528 12.0426C12.7741 12.2527 12.9516 12.4166 13.1673 12.4166C13.3974 12.4166 13.584 12.2301 13.584 12V4.33329L13.5818 4.29069Z" clip-rule="evenodd"/><path id="Path 44" fill="#000638" d="M12.2473 2.91663C12.9605 2.91663 13.5637 3.44762 13.5996 4.14741L13.6013 4.2135L13.6013 4.32363L14.8749 3.43042L15.3035 3.63318L15.5909 3.77226L15.7649 3.85882L15.9253 3.94094L16.0723 4.01906L16.2065 4.0936L16.3281 4.16499C16.3474 4.17665 16.3661 4.18819 16.3843 4.19963L16.4879 4.2671C16.8133 4.48829 16.9452 4.67482 16.9452 4.89807C16.9452 5.12819 16.7587 5.31474 16.5286 5.31474C16.3717 5.31474 16.235 5.22802 16.164 5.09989L16.143 5.05563L16.1023 5.0229L16.0371 4.97618L15.955 4.92236L15.8455 4.85552L15.7057 4.77534L15.5456 4.6882L15.3654 4.59417C15.3337 4.57793 15.3011 4.5614 15.2677 4.54459L14.956 4.39096L12.768 5.92639V4.2135C12.768 3.95936 12.5386 3.74996 12.2473 3.74996C11.9563 3.74996 11.6384 3.99211 11.6057 4.18232L11.603 4.2135V5.9866L9.5993 4.39963L9.53629 4.43128C8.13926 5.13131 7.23104 5.83026 6.80995 6.50645L6.76813 6.57631C6.71417 6.67025 6.65882 6.77362 6.60212 6.88639L6.51603 7.06261C6.487 7.12369 6.45762 7.18713 6.42791 7.25291L6.33777 7.45728C6.30738 7.52775 6.27667 7.60056 6.24561 7.67571L6.15146 7.90817L6.05533 8.15465C6.03914 8.1969 6.02287 8.23973 6.00652 8.28314L5.90743 8.55061L5.80639 8.83205L5.70341 9.12744L5.5985 9.43676L5.43755 9.92682L5.32788 10.2709L5.15985 10.813L5.01346 11.2968H3.99878C3.83042 11.2968 3.7645 11.3554 3.75242 11.6103L3.75097 11.653L3.75573 11.6658C3.8241 11.8467 3.8918 11.9846 3.95504 12.0775L3.98186 12.1146L4.0069 12.1471C4.0181 12.1624 4.0184 12.1665 4.0083 12.1675L14.9161 12.1678C15.1462 12.1678 15.3327 12.3543 15.3327 12.5844C15.3327 12.8002 15.1688 12.9776 14.9587 12.9989L14.9161 13.0011H3.99878C3.53498 13.0011 3.22458 12.6239 2.97222 11.9499L2.94097 11.8641L2.91734 11.7975L2.91702 11.7268C2.91361 10.9773 3.27249 10.4963 3.92973 10.4651L3.99878 10.4635L4.39497 10.4633L4.53625 10.0103L4.64907 9.65653L4.7601 9.31675C4.77845 9.26128 4.79673 9.20639 4.81494 9.15208L4.92329 8.8332L5.02988 8.52822L5.13471 8.23714L5.23779 7.95994L5.33915 7.69659L5.4388 7.44707L5.53674 7.21138C5.55292 7.17325 5.56903 7.13569 5.58507 7.09871L5.68048 6.88371C5.712 6.81434 5.74325 6.74726 5.77422 6.68248L5.86629 6.495C5.91192 6.4047 5.95693 6.31955 6.00133 6.23953L6.04552 6.16123C6.55863 5.26797 7.64754 4.42749 9.31019 3.61331L9.47289 3.5346L9.70746 3.42246L10.7693 4.26329L10.7696 4.2135C10.7696 3.53479 11.4711 2.9529 12.1808 2.91826L12.2473 2.91663Z"/><path id="Path 45" fill="#000638" d="M17.5053 12.1678H20.4741L20.5906 12.1666C20.6081 12.1662 20.6247 12.1656 20.6404 12.165L20.7246 12.1594C20.8862 12.1435 20.9176 12.1017 20.9284 12.0056L20.9327 11.9436L20.9336 11.8649L20.9332 11.8108L20.9329 11.6349L20.93 11.5147L20.9279 11.4798C20.9236 11.4179 20.9164 11.3676 20.9077 11.3303L20.8982 11.2966L19.2097 11.2968L19.2296 10.7213L19.2347 10.4444C19.2427 9.5904 19.1721 8.95646 19.0301 8.55249C18.8587 8.06483 18.5818 7.5533 18.1979 7.01894C18.0637 6.83206 18.1063 6.57171 18.2932 6.43744C18.4801 6.30317 18.7404 6.34583 18.8747 6.53271C19.3026 7.12835 19.617 7.70916 19.8163 8.27619C19.984 8.75326 20.0661 9.41591 20.0687 10.2724L20.0675 10.4633L20.9218 10.4635C21.4664 10.4635 21.703 10.8331 21.7542 11.3612L21.7592 11.4228L21.7648 11.5367L21.7664 11.6708L21.7664 11.9475L21.7637 12.0142C21.763 12.0252 21.7622 12.0363 21.7613 12.048C21.7155 12.629 21.3291 12.9766 20.5582 12.9998L20.4741 13.0011L18.4715 13.0009L18.4243 13.2778C18.3386 13.7651 18.2365 14.2829 18.1182 14.8098C17.7769 16.3294 17.3727 17.6161 16.8969 18.5092C15.725 20.7086 14.0017 22.1393 12.2479 22.1393C10.5452 22.1393 8.67183 20.6222 7.41338 18.5279C6.6624 17.2781 6.21227 15.3095 6.04476 12.6102C6.03051 12.3806 6.20514 12.1828 6.43482 12.1686C6.66449 12.1543 6.86224 12.3289 6.87649 12.5586C7.03646 15.1363 7.45959 16.9869 8.12767 18.0987C9.25122 19.9684 10.9028 21.3059 12.2479 21.3059C13.6345 21.3059 15.1192 20.0733 16.1614 18.1173C16.5936 17.3062 16.979 16.0794 17.3051 14.6272C17.3974 14.2166 17.4795 13.811 17.5515 13.422L17.6265 13.0009L17.5053 13.0011V12.1678Z"/><path id="Path 46" fill="#000638" d="M10.8851 18.811C11.073 18.6781 11.333 18.7227 11.4659 18.9106C11.6481 19.1683 11.8942 19.2902 12.2478 19.2902C12.4752 19.2902 12.6848 19.2146 12.8734 19.0853C12.9881 19.0067 13.0663 18.9302 13.0984 18.8903C13.2425 18.7109 13.5047 18.6822 13.6841 18.8263C13.8635 18.9704 13.8922 19.2327 13.7481 19.4121C13.6686 19.5111 13.5338 19.643 13.3445 19.7727C13.0262 19.9908 12.6584 20.1235 12.2478 20.1235C11.6291 20.1235 11.1272 19.875 10.7855 19.3918C10.6526 19.2039 10.6972 18.9438 10.8851 18.811Z"/><path id="Path 47" fill="#000638" d="M9.79871 13.8636C10.4869 13.633 11.0851 13.633 11.5767 13.8891C11.7807 13.9954 11.86 14.2471 11.7537 14.4512C11.6544 14.6416 11.4286 14.7234 11.233 14.647L11.1916 14.6282C10.925 14.4893 10.5544 14.4893 10.0634 14.6537C9.55344 14.8246 9.20699 15.0572 9.01008 15.3437C8.87973 15.5333 8.62032 15.5814 8.43068 15.451C8.24104 15.3207 8.19298 15.0613 8.32333 14.8716C8.633 14.4211 9.12945 14.0877 9.79871 13.8636Z"/><path id="Path 48" fill="#000638" d="M12.8642 13.8458C13.5449 13.7529 14.1452 13.7919 14.6631 13.9688C15.3757 14.2123 15.9322 14.5669 16.1161 14.9115C16.2244 15.1145 16.1477 15.3669 15.9447 15.4753C15.7417 15.5836 15.4893 15.5069 15.3809 15.3039C15.3539 15.2533 15.2588 15.1743 15.1139 15.0862L15.0102 15.0263C14.8442 14.9351 14.6325 14.839 14.3936 14.7574C14.0082 14.6257 13.5367 14.5951 12.977 14.6715C12.749 14.7026 12.5389 14.5431 12.5078 14.3151C12.4767 14.0871 12.6362 13.877 12.8642 13.8458Z"/></g></g></svg>

<svg xmlns="http://www.w3.org/2000/svg" width="25" height="25" fill="none" viewBox="0 0 25 25"><circle cx="15.25" cy="8.25" r="6.25" fill="#CCE1F8"/><path fill="#000638" fill-rule="evenodd" d="M11.915 4.29a.417.417 0 0 0-.831.043V12l.002.043a.417.417 0 0 0 .831-.043V4.333zm1.667 0a.417.417 0 0 0-.831.043V12l.002.043a.417.417 0 0 0 .831-.043V4.333z" clip-rule="evenodd"/><path fill="#000638" d="M12.247 2.917c.713 0 1.317.53 1.353 1.23l.001.066v.11l1.274-.893.428.203.288.14.174.086.16.082.147.078.134.075.122.071.056.035.104.067c.325.221.457.408.457.631a.417.417 0 0 1-.781.202l-.021-.044-.04-.033-.066-.047-.082-.054-.11-.066-.14-.08-.16-.088-.18-.094-.097-.05-.312-.153-2.188 1.535V4.213c0-.254-.23-.463-.52-.463-.292 0-.61.242-.642.432l-.003.031v1.774L9.599 4.4l-.063.031c-1.397.7-2.305 1.4-2.726 2.075l-.042.07q-.082.142-.166.31l-.086.177q-.043.09-.088.19l-.09.204-.092.219-.095.232-.096.247-.048.128-.1.268-.1.281-.104.295-.105.31-.16.49-.11.344-.168.542-.147.484H4c-.169 0-.235.058-.247.313l-.001.043.005.013q.103.271.199.412l.027.037.025.032q.016.021.001.02h10.908a.417.417 0 0 1 .043.832l-.043.002H4c-.464 0-.774-.377-1.027-1.051l-.031-.086-.024-.067v-.07c-.003-.75.355-1.23 1.013-1.262L4 10.463h.396l.141-.453.113-.353.111-.34.055-.165.108-.319.107-.305.105-.29.103-.278.101-.263.1-.25.098-.236.048-.112.095-.215.094-.202.092-.187q.068-.135.135-.255l.045-.079c.513-.893 1.602-1.734 3.264-2.548l.163-.078.234-.113 1.062.841v-.05c0-.678.702-1.26 1.412-1.295z"/><path fill="#000638" d="M17.505 12.168h2.97l.116-.001.05-.002.084-.006c.161-.016.193-.057.203-.153l.005-.062v-.309l-.003-.12-.002-.035a1 1 0 0 0-.02-.15l-.01-.033H19.21l.02-.576.005-.277c.008-.854-.063-1.488-.205-1.892q-.256-.731-.832-1.533a.417.417 0 0 1 .677-.486q.642.893.941 1.743.25.714.253 1.996l-.002.191h.855c.544 0 .781.37.832.898l.005.062.006.114.001.134v.277l-.002.066-.003.034c-.046.581-.432.929-1.203.952l-.084.001h-2.003l-.047.277a34 34 0 0 1-.306 1.532c-.341 1.52-.745 2.806-1.221 3.7-1.172 2.199-2.895 3.63-4.65 3.63-1.702 0-3.575-1.518-4.834-3.612-.75-1.25-1.2-3.218-1.368-5.918a.417.417 0 0 1 .831-.051c.16 2.577.584 4.428 1.252 5.54 1.123 1.87 2.775 3.207 4.12 3.207 1.386 0 2.871-1.233 3.913-3.189.433-.81.818-2.038 1.144-3.49.092-.41.175-.816.247-1.205l.075-.421h-.122z"/><path fill="#000638" d="M10.885 18.811a.417.417 0 0 1 .58.1c.183.257.43.38.783.38.227 0 .437-.076.625-.206.115-.078.193-.155.225-.195a.417.417 0 1 1 .65.522c-.08.1-.214.231-.403.36a1.9 1.9 0 0 1-1.097.352c-.619 0-1.12-.249-1.462-.732a.417.417 0 0 1 .1-.581m-1.087-4.947c.688-.231 1.286-.231 1.778.025a.417.417 0 0 1-.344.758l-.041-.019c-.267-.139-.638-.139-1.129.026-.51.17-.856.403-1.053.69a.417.417 0 0 1-.687-.472c.31-.45.806-.784 1.476-1.008m3.065-.018q1.02-.141 1.8.123c.712.243 1.268.598 1.452.943a.417.417 0 0 1-.735.392c-.027-.05-.122-.13-.267-.218l-.104-.06a4 4 0 0 0-.616-.269q-.578-.199-1.417-.085a.417.417 0 1 1-.113-.826"/></svg>
